X:77
T:Banks of Eyderinay,The. JJo.077
S:J.Jones MS,1801,N.Shrops.
N:marks “song” and “syn” appear to denote sections of song
N:and instrumental links respectively.
A:N Shropshire
Z:Neil Brookes 2006
M:4/4
L:1/8
Q:1/4=140
K:C
e>f|g3a g>ed>c|d>cd>eA3c|G>AGEG2cG|E2G>A G c/d/e/f/|!
g2a/b/c’ gedc|f2 “_sic”abc’ bc’ dfa|g>ec.eTA2f|”song”e2Td>cc2 e>f|!
g3ag>ed>c|Td>cd>eA3c|G>AGEG2cG|E2G>A G c/d/e/f/|!
g2a/b/c’ gedc|fedc A2e>d|cA GE G2c>d|”syn”cd/e/ Td>c cegc’|!
g>age a2 c’a|”song”f>gfd eg GF|E3G A>GAc|Td>cdfA2a|!
gage fedc|f>g a/g/f/e/d2g>f|egab Hc’2 b/a/|gfed A2e>d|!
cAGE G2c>d|e2Td>c cega|g>agea2c’a|g>ageg2e>d|BAGEG2ea|g2d>cc4|]

